!!!!SEGMENT: pl-sa--599-a-ix-79--003_anonim--valc.krn
!!!cenid: 18xx:665
!!!COM: Anonim
!!!COM-rismid: pe30004985
!!!CDT:
!!!CNT:
!!!OTL: Valc
!!!PDT:
!!!AGN: Secular; Waltz
!!!SMS-siglum: PL-SA
!!!SMS-shelfmark: 599/A IX 79
!!!SMS-shelfwork: 003 W
!!!SMS-variant:
!!!SMS-altvar:
!!!NIFC-rismid: 1001065539
!!!URL-scan: http://bc.bdsandomierz.pl/dlibra/publication/1407/edition/1375/content
!!!ONB-nifc: Str. 2
**kern	**kern
*part2	*part1
*staff2	*staff1
*I"Piano	*I"Piano
*clefF4	*clefG2
*k[b-]	*k[b-]
*F:	*F:
*M3/8	*M3/8
*A,B,A	*
*A	*A
=1	=1
!LO:SIC:o:s:=:v:all\right global	!LO:SIC:o:s:=:v:all\right global
8F\L	16a\LL
.	16cc\
8c 8A\	16cc\
.	16cc\
8cJ 8A\	16cc\
.	16cc\JJ
=2	=2
*rep	*
8F\L	16ff\LL
.	16f\
8c 8A\	16a\
.	16f\
8cJ 8A\	16cc\
.	16a\JJ
*Xrep	*
=3	=3
8C\L	16b-\LL
.	16g\
8c 8B- 8G\	16ee\
.	16cc\
8cJ 8B- 8G\	16gg\
.	16ee\JJ
=4	=4
8F\L	16ff\LL
.	16cc\
8c 8A\	16aa\
.	16cc\JJ
8cJ 8A\	8ff\
=5	=5
*rep	*
8F\L	16a\LL
.	16cc\
8c 8A\	16cc\
.	16cc\
8cJ 8A\	16cc\
.	16cc\JJ
*Xrep	*
=6	=6
*rep	*
8F\L	16ff\LL
.	16f\
8c 8A\	16a\
.	16f\
8cJ 8A\	16cc\
.	16a\JJ
*Xrep	*
!!LO:LB:g=original
=7	=7
8C\L	16b-\LL
.	16g\
8c 8B- 8G\	16ee\
.	16cc\
8cJ 8B- 8G\	16gg\
.	16ee\JJ
=8	=8
.	8qee/
8F\	4ff\
!LO:SIC:o:s:=:v:kreska taktowa końcowa	!
4FF/	.
!	!LO:SIC:o:s:=:v:kreska taktowa końcowa
.	8r
*B	*B
=9||	=9||
8C\L	16b-\LL
.	16a\
8c 8B- 8G\	16g\
.	16dd\
8cJ 8B- 8G\	16cc\
.	16b-\JJ
=10	=10
8F\L	16a\LL
.	16cc\
8c 8A\	16f\
.	16a\
8cJ 8A\	16cc\
.	16ff\JJ
=11	=11
.	8qaa/
8C\L	16gg\LL
.	16ff#X\
8c 8B- 8G\	16gg\
.	16bb-\
8cJ 8B- 8G\	16ee\
.	16gg\JJ
=12	=12
8F\L	16ff\LL
.	16aa\
8c 8A\	16cc\
.	16ff\
8cJ 8A\	16a\
.	16cc\JJ
=13	=13
8C\L	16b-\LL
.	16a\
8c 8B- 8G\	16g\
.	16dd\
8cJ 8B- 8G\	16cc\
.	16b-\JJ
!!LO:LB:g=original
=14	=14
8F\L	16a\LL
.	16cc\
8c 8A\	16ff\
.	16cc\
8cJ 8A\	16ff\
.	16aa\JJ
=15	=15
8C\L	16gg\LL
.	16bb-\
8c 8B- 8G\	16ee\
.	16gg\
8cJ 8B- 8G\	16cc\
.	16ee\JJ
=16	=16
8F\	4ff\
4FF/	.
.	8r
!	!LO:TX:b:t=Da Capo =.
==	==
*-	*-
!!!system-decoration: [(s1,s2)]
!!!EED: Leszek Kubiak
!!!EST: 2020-12-14
!!!ENC: Andrzej Kubiczek
!!!END:
